source/images/burst2.svg

<?xml version="1.0" encoding="UTF-8"?>
<svg width="178px" height="178px" viewBox="0 0 178 178" version="1.1" xmlns="http://www.w3.org/2000/svg" xmlns:xlink="http://www.w3.org/1999/xlink">
    <!-- Generator: Sketch 42 (36781) - http://www.bohemiancoding.com/sketch -->
    <title>thank-you</title>
    <desc>Created with Sketch.</desc>
    <defs></defs>
    <g id="Wireframes" stroke="none" stroke-width="1" fill="none" fill-rule="evenodd">
        <g id="Thank-You" transform="translate(-687.000000, -230.000000)" fill-rule="nonzero" fill="#B6D806">
            <g id="thank-you" transform="translate(687.000000, 230.000000)">
                <ellipse id="Oval" cx="89" cy="2.19169371" rx="2.16747095" ry="2.16747095"></ellipse>
                <circle id="Oval" cx="89" cy="175.808306" r="2.16747095"></circle>
                <path d="M91.1893646,165.365037 L86.8106354,165.365037 L86.8106354,156.607579 L91.1893646,156.607579 L91.1893646,165.365037 Z M91.1893646,147.85012 L86.8106354,147.85012 L86.8106354,139.092662 L91.1893646,139.092662 L91.1893646,147.85012 Z M91.1893646,130.335204 L86.8106354,130.335204 L86.8106354,121.577745 L91.1893646,121.577745 L91.1893646,130.335204 Z M91.1893646,60.2755365 L86.8106354,60.2755365 L86.8106354,51.5180781 L91.1893646,51.5180781 L91.1893646,60.2755365 Z M91.1893646,42.7606197 L86.8106354,42.7606197 L86.8106354,34.0031613 L91.1893646,34.0031613 L91.1893646,42.7606197 Z M91.1893646,25.2457029 L86.8106354,25.2457029 L86.8106354,16.4882445 L91.1893646,16.4882445 L91.1893646,25.2457029 Z" id="Shape"></path>
                <polygon id="Shape" points="158.227709 22.9468701 155.140704 19.859866 152.447786 22.5308908 149.776761 19.859866 146.667863 22.9468701 149.360782 25.6397885 146.667863 28.3108134 149.776761 31.4197111 152.447786 28.7267926 155.140704 31.4197111 158.227709 28.3108134 155.556684 25.6397885"></polygon>
                <polygon id="Shape" points="31.5291793 149.645399 28.4421752 146.558395 25.7492568 149.251314 23.078232 146.558395 19.9912279 149.645399 22.6622527 152.338318 19.9912279 155.009343 23.078232 158.11824 25.7492568 155.425322 28.4421752 158.11824 31.5291793 155.009343 28.8581545 152.338318"></polygon>
                <polygon id="Shape" points="31.5291793 22.9468701 28.4421752 19.859866 25.7492568 22.5308908 23.078232 19.859866 19.9912279 22.9468701 22.6622527 25.6397885 19.9912279 28.3108134 23.078232 31.4197111 25.7492568 28.7267926 28.4421752 31.4197111 31.5291793 28.3108134 28.8581545 25.6397885"></polygon>
                <polygon id="Shape" points="158.227709 149.645399 155.140704 146.558395 152.447786 149.251314 149.776761 146.558395 146.667863 149.645399 149.360782 152.338318 146.667863 155.009343 149.776761 158.11824 152.447786 155.425322 155.140704 158.11824 158.227709 155.009343 155.556684 152.338318"></polygon>
                <rect id="Rectangle-path" transform="translate(54.211063, 123.876880) rotate(-45.000000) translate(-54.211063, -123.876880) " x="45.4536043" y="122.782197" width="17.5149168" height="2.1893646"></rect>
                <rect id="Rectangle-path" transform="translate(40.264810, 137.819937) rotate(-45.000000) translate(-40.264810, -137.819937) " x="31.5073518" y="136.725254" width="17.5149168" height="2.1893646"></rect>
                <rect id="Rectangle-path" transform="translate(123.876644, 54.210695) rotate(-45.000000) translate(-123.876644, -54.210695) " x="115.119186" y="53.1160126" width="17.5149168" height="2.1893646"></rect>
                <rect id="Rectangle-path" transform="translate(137.801003, 40.298600) rotate(-45.000000) translate(-137.801003, -40.298600) " x="129.043545" y="39.203918" width="17.5149168" height="2.1893646"></rect>
                <rect id="Rectangle-path" transform="translate(40.413447, 40.281325) rotate(-45.000000) translate(-40.413447, -40.281325) " x="39.3187647" y="31.523867" width="2.1893646" height="17.5149168"></rect>
                <rect id="Rectangle-path" transform="translate(54.325542, 54.205684) rotate(-45.000000) translate(-54.325542, -54.205684) " x="53.2308592" y="45.4482259" width="2.1893646" height="17.5149168"></rect>
                <rect id="Rectangle-path" transform="translate(123.991726, 123.871266) rotate(-45.000000) translate(-123.991726, -123.871266) " x="122.897044" y="115.113807" width="2.1893646" height="17.5149168"></rect>
                <rect id="Rectangle-path" transform="translate(137.941196, 137.832999) rotate(-45.000000) translate(-137.941196, -137.832999) " x="136.846513" y="129.075541" width="2.1893646" height="17.5149168"></rect>
                <ellipse id="Oval" cx="175.808306" cy="89" rx="2.16747095" ry="2.16747095"></ellipse>
                <ellipse id="Oval" cx="2.19169371" cy="89" rx="2.16747095" ry="2.16747095"></ellipse>
                <path d="M163.70112,91.1893646 L154.943662,91.1893646 L154.943662,86.8106354 L163.70112,86.8106354 L163.70112,91.1893646 Z M146.186203,91.1893646 L137.428745,91.1893646 L137.428745,86.8106354 L146.186203,86.8106354 L146.186203,91.1893646 Z M128.671287,91.1893646 L119.913828,91.1893646 L119.913828,86.8106354 L128.671287,86.8106354 L128.671287,91.1893646 Z M58.6116194,91.1893646 L49.854161,91.1893646 L49.854161,86.8106354 L58.6116194,86.8106354 L58.6116194,91.1893646 Z M41.0967026,91.1893646 L32.3392442,91.1893646 L32.3392442,86.8106354 L41.0967026,86.8106354 L41.0967026,91.1893646 Z M23.5817858,91.1893646 L14.8243274,91.1893646 L14.8243274,86.8106354 L23.5817858,86.8106354 L23.5817858,91.1893646 Z" id="Shape"></path>
                <path d="M107.237407,72.4046164 L116.914399,62.7276248 L115.272375,61.1950696 L105.57349,70.8939548 C106.201108,71.375615 106.755747,71.8791688 107.237407,72.4046164 Z" id="Shape"></path>
                <path d="M89,107.740961 C88.1803966,107.742666 87.4284821,107.286448 87.0514655,106.558704 C84.0392749,99.5889391 78.4675224,94.040696 71.4850832,91.0580027 C70.7539094,90.6834113 70.2939825,89.9310118 70.2939825,89.1094682 C70.2939825,88.2879246 70.7539094,87.5355252 71.4850832,87.1609337 C78.4480758,84.1610845 83.9957661,78.6055584 86.9857846,71.6383387 C87.3628012,70.9105949 88.1147157,70.4543771 88.9343191,70.4560819 L88.9343191,70.4560819 C89.7539225,70.4543771 90.5058369,70.9105949 90.8828536,71.6383387 C93.9107166,78.6202156 99.5077373,84.1702026 106.514917,87.1390401 C107.246091,87.5136315 107.706018,88.266031 107.706018,89.0875746 C107.706018,89.9091182 107.246091,90.6615176 106.514917,91.0361091 C99.536492,94.0135706 93.9653188,99.553401 90.9485345,106.514917 C90.5715179,107.242661 89.8196034,107.698878 89,107.697174 L89,107.740961 Z M77.0898566,89 C82.1019164,91.8190282 86.2269448,95.9819705 89,101.019612 C91.7730552,95.9819705 95.8980836,91.8190282 100.910143,89 C95.9245425,86.2345618 91.8021565,82.1424875 89,77.1774312 C86.1996801,82.1438876 82.076844,86.2364087 77.0898566,89 L77.0898566,89 Z" id="Shape"></path>
                <path d="M116.454632,30.7410081 C115.556426,30.3616738 114.841645,29.6468918 114.46231,28.7486863 L113.477096,26.8439391 L112.513776,28.7486863 C112.136413,29.6482172 111.420985,30.3636451 110.521454,30.7410081 L108.616707,31.7043285 L110.521454,32.6895426 C111.41966,33.0688768 112.134442,33.7836588 112.513776,34.6818643 L113.49899,36.5866115 L114.46231,34.6818643 C114.837674,33.7809925 115.55376,33.0649058 116.454632,32.6895426 L118.359379,31.7043285 L116.454632,30.7410081 Z" id="Shape"></path>
                <path d="M67.2596095,30.7410081 C66.361404,30.3616738 65.646622,29.6468918 65.2672878,28.7486863 L64.2820737,26.8439391 L63.3187533,28.7486863 C62.94339,29.6495581 62.2273033,30.3656448 61.3264315,30.7410081 L59.4216843,31.7262221 L61.3264315,32.7114362 C62.2246371,33.0907705 62.939419,33.8055524 63.3187533,34.703758 L64.3039673,36.6085052 L65.2672878,34.703758 C65.646622,33.8055524 66.361404,33.0907705 67.2596095,32.7114362 L69.1643567,31.7481158 L67.2596095,30.7410081 Z" id="Shape"></path>
                <path d="M116.454632,145.310457 C115.555101,144.933095 114.839673,144.217667 114.46231,143.318136 L113.477096,141.413388 L112.513776,143.318136 C112.134442,144.216341 111.41966,144.931123 110.521454,145.310457 L108.616707,146.295672 L110.521454,147.258992 C111.420985,147.636355 112.136413,148.351783 112.513776,149.251314 L113.49899,151.156061 L114.46231,149.251314 C114.839673,148.351783 115.555101,147.636355 116.454632,147.258992 L118.359379,146.273778 L116.454632,145.310457 Z" id="Shape"></path>
                <path d="M149.798655,108.923218 C148.900449,108.543884 148.185667,107.829102 147.806333,106.930896 L146.821119,105.026149 L145.857799,106.930896 C145.480436,107.830427 144.765008,108.545855 143.865477,108.923218 L141.96073,109.908432 L143.865477,110.893646 C144.763682,111.27298 145.478464,111.987762 145.857799,112.885968 L146.843013,114.790715 L147.806333,112.885968 C148.183696,111.986437 148.899124,111.271009 149.798655,110.893646 L151.703402,109.908432 L149.798655,108.923218 Z" id="Shape"></path>
                <path d="M32.7552235,108.923218 C31.8570179,108.543884 31.142236,107.829102 30.7629017,106.930896 L29.7776876,105.026149 L28.8143672,106.930896 C28.435033,107.829102 27.720251,108.543884 26.8220454,108.923218 L24.9172982,109.886538 L26.8220454,110.871752 C27.7215764,111.249115 28.4370043,111.964543 28.8143672,112.864074 L29.7995813,114.768821 L30.7847954,112.864074 C31.1641296,111.965869 31.8789116,111.251087 32.7771171,110.871752 L34.6818643,109.886538 L32.7552235,108.923218 Z" id="Shape"></path>
                <path d="M149.798655,62.4867947 C148.900449,62.1074605 148.185667,61.3926785 147.806333,60.4944729 L146.821119,58.5897257 L145.92348,60.5382602 C145.548116,61.4391321 144.83203,62.1552187 143.931158,62.530582 L142.026411,63.5157961 L143.931158,64.5010102 C144.829363,64.8803444 145.544145,65.5951264 145.92348,66.4933319 L146.908694,68.3980791 L147.872014,66.4933319 C148.249377,65.593801 148.964805,64.8783731 149.864336,64.5010102 L151.769083,63.5157961 L149.798655,62.4867947 Z" id="Shape"></path>
                <path d="M32.7552235,62.4867947 C31.8570179,62.1074605 31.142236,61.3926785 30.7629017,60.4944729 L29.7776876,58.5897257 L28.7924736,60.5382602 C28.4131393,61.4364658 27.6983574,62.1512478 26.8001518,62.530582 L24.8954046,63.4939024 L26.8001518,64.4791165 C27.6996827,64.8564794 28.4151106,65.5719074 28.7924736,66.4714383 L29.7776876,68.3761855 L30.7629017,66.4714383 C31.1402646,65.5719074 31.8556926,64.8564794 32.7552235,64.4791165 L34.6599707,63.4939024 L32.7552235,62.4867947 Z" id="Shape"></path>
                <path d="M67.2377159,145.310457 C66.338185,144.933095 65.622757,144.217667 65.2453941,143.318136 L64.26018,141.413388 L63.2968596,143.318136 C62.9194967,144.217667 62.2040688,144.933095 61.3045378,145.310457 L59.3997906,146.295672 L61.3045378,147.258992 C62.2040688,147.636355 62.9194967,148.351783 63.2968596,149.251314 L64.2820737,151.156061 L65.2453941,149.251314 C65.6247284,148.353108 66.3395103,147.638326 67.2377159,147.258992 L69.1424631,146.273778 L67.2377159,145.310457 Z" id="Shape"></path>
                <path d="M72.6454465,70.9815294 L62.8589867,61.1950696 L61.3045378,62.7495185 L71.0909976,72.5359782 C71.5872536,71.995935 72.1054032,71.4777853 72.6454465,70.9815294 Z" id="Shape"></path>
                <path d="M71.003423,105.551596 L61.173176,115.272375 L62.7276248,116.826824 L72.5359782,107.018471 C71.995935,106.580598 71.4850832,106.09164 71.003423,105.551596 Z" id="Shape"></path>
                <path d="M107.324982,105.661065 C106.828726,106.201108 106.310576,106.719257 105.770533,107.215513 L115.491312,116.936292 L117.04576,115.381843 L107.324982,105.661065 Z" id="Shape"></path>
            </g>
        </g>
    </g>
</svg>

<svg width="178" height="178" viewBox="0 0 178 178" xmlns="http://www.w3.org/2000/svg"><title>thank-you</title><g fill-rule="nonzero" fill="#B6D806"><ellipse cx="89" cy="2.192" rx="2.167" ry="2.167"/><circle cx="89" cy="175.808" r="2.167"/><path d="M91.19 165.365h-4.38v-8.757h4.38v8.757zm0-17.515h-4.38v-8.757h4.38v8.757zm0-17.515h-4.38v-8.757h4.38v8.757zm0-70.06h-4.38v-8.757h4.38v8.758zm0-17.514h-4.38v-8.758h4.38v8.758zm0-17.515h-4.38v-8.758h4.38v8.758zM158.228 22.947l-3.087-3.087-2.693 2.67-2.671-2.67-3.11 3.087 2.694 2.693-2.693 2.67 3.109 3.11 2.67-2.693 2.694 2.693 3.087-3.11-2.671-2.67zM31.53 149.645l-3.088-3.087-2.693 2.693-2.67-2.693-3.088 3.087 2.671 2.693-2.67 2.671 3.086 3.11 2.671-2.694 2.693 2.693 3.087-3.109-2.67-2.67zM31.53 22.947l-3.088-3.087-2.693 2.67-2.67-2.67-3.088 3.087 2.671 2.693-2.67 2.67 3.086 3.11 2.671-2.693 2.693 2.693 3.087-3.11-2.67-2.67zM158.228 149.645l-3.087-3.087-2.693 2.693-2.671-2.693-3.11 3.087 2.694 2.693-2.693 2.671 3.109 3.11 2.67-2.694 2.694 2.693 3.087-3.109-2.671-2.67zM47.245 129.295L59.63 116.91l1.548 1.548-12.385 12.385zM33.298 143.238l12.385-12.385 1.548 1.548-12.385 12.385zM116.91 59.63l12.385-12.386 1.548 1.548-12.385 12.385zM130.835 45.717l12.385-12.385 1.548 1.548-12.385 12.385zM33.447 34.863l1.548-1.548L47.38 45.7l-1.548 1.548zM47.359 48.787l1.548-1.548 12.385 12.385-1.548 1.548zM117.025 118.453l1.548-1.548 12.385 12.385-1.548 1.548zM130.975 132.415l1.548-1.548 12.385 12.385-1.548 1.548z"/><ellipse cx="175.808" cy="89" rx="2.167" ry="2.167"/><ellipse cx="2.192" cy="89" rx="2.167" ry="2.167"/><path d="M163.701 91.19h-8.757v-4.38h8.757v4.38zm-17.515 0h-8.757v-4.38h8.757v4.38zm-17.515 0h-8.757v-4.38h8.757v4.38zm-70.06 0h-8.757v-4.38h8.758v4.38zm-17.514 0h-8.758v-4.38h8.758v4.38zm-17.515 0h-8.758v-4.38h8.758v4.38zM107.237 72.405l9.677-9.677-1.642-1.533-9.699 9.699c.628.482 1.183.985 1.664 1.51zM89 107.741a2.19 2.19 0 0 1-1.949-1.182 29.644 29.644 0 0 0-15.566-15.501 2.19 2.19 0 0 1 0-3.897c6.963-3 12.51-8.555 15.5-15.523a2.19 2.19 0 0 1 1.95-1.182 2.19 2.19 0 0 1 1.948 1.182 29.644 29.644 0 0 0 15.632 15.501 2.19 2.19 0 0 1 0 3.897 29.644 29.644 0 0 0-15.566 15.479A2.19 2.19 0 0 1 89 107.697v.044zM77.09 89A30.87 30.87 0 0 1 89 101.02 30.87 30.87 0 0 1 100.91 89 30.87 30.87 0 0 1 89 77.177 30.826 30.826 0 0 1 77.09 89zM116.455 30.741a3.744 3.744 0 0 1-1.993-1.992l-.985-1.905-.963 1.905a3.722 3.722 0 0 1-1.993 1.992l-1.904.963 1.904.986a3.744 3.744 0 0 1 1.993 1.992l.985 1.905.963-1.905a3.7 3.7 0 0 1 1.993-1.992l1.904-.986-1.904-.963zM67.26 30.741a3.744 3.744 0 0 1-1.993-1.992l-.985-1.905-.963 1.905a3.7 3.7 0 0 1-1.993 1.992l-1.904.985 1.904.985a3.744 3.744 0 0 1 1.993 1.993l.985 1.905.963-1.905a3.744 3.744 0 0 1 1.993-1.993l1.904-.963-1.904-1.007zM116.455 145.31a3.722 3.722 0 0 1-1.993-1.992l-.985-1.905-.963 1.905a3.744 3.744 0 0 1-1.993 1.992l-1.904.986 1.904.963a3.722 3.722 0 0 1 1.993 1.992l.985 1.905.963-1.905a3.722 3.722 0 0 1 1.993-1.992l1.904-.985-1.904-.964zM149.799 108.923a3.744 3.744 0 0 1-1.993-1.992l-.985-1.905-.963 1.905a3.722 3.722 0 0 1-1.993 1.992l-1.904.985 1.904.986a3.744 3.744 0 0 1 1.993 1.992l.985 1.905.963-1.905a3.722 3.722 0 0 1 1.993-1.992l1.904-.986-1.904-.985zM32.755 108.923a3.744 3.744 0 0 1-1.992-1.992l-.985-1.905-.964 1.905a3.744 3.744 0 0 1-1.992 1.992l-1.905.964 1.905.985a3.722 3.722 0 0 1 1.992 1.992l.986 1.905.985-1.905a3.744 3.744 0 0 1 1.992-1.992l1.905-.985-1.927-.964zM149.799 62.487a3.744 3.744 0 0 1-1.993-1.993l-.985-1.904-.898 1.948a3.7 3.7 0 0 1-1.992 1.993l-1.905.985 1.905.985a3.744 3.744 0 0 1 1.992 1.992l.986 1.905.963-1.905a3.722 3.722 0 0 1 1.992-1.992l1.905-.985-1.97-1.03zM32.755 62.487a3.744 3.744 0 0 1-1.992-1.993l-.985-1.904-.986 1.948a3.744 3.744 0 0 1-1.992 1.993l-1.905.963 1.905.985a3.722 3.722 0 0 1 1.992 1.992l.986 1.905.985-1.905a3.722 3.722 0 0 1 1.992-1.992l1.905-.985-1.905-1.007zM67.238 145.31a3.722 3.722 0 0 1-1.993-1.992l-.985-1.905-.963 1.905a3.722 3.722 0 0 1-1.992 1.992l-1.905.986 1.905.963a3.722 3.722 0 0 1 1.992 1.992l.985 1.905.963-1.905a3.744 3.744 0 0 1 1.993-1.992l1.904-.985-1.904-.964zM72.645 70.982l-9.786-9.787-1.554 1.555 9.786 9.786a26.025 26.025 0 0 1 1.554-1.554zM71.003 105.552l-9.83 9.72 1.555 1.555 9.808-9.809c-.54-.437-1.05-.926-1.533-1.466zM107.325 105.661a26.025 26.025 0 0 1-1.554 1.555l9.72 9.72 1.555-1.554-9.721-9.72z"/></g></svg>
